X:1
T:Bunch of Roses -- Reel
R:reel
B:Ryan's Mammoth Collection
N:267
Z:Contributed by Ray Davies,  ray:davies99.freeserve.co.uk
M:C|
L:1/8
K:G
u(dc)"^Segno"|:\
BG (3.G.G.G (Bd).g.d | (BG)(AG) .F.G.A.c | (Bc).B.A (Bd).g.d |\
 .c.A(BG) DG G2 |
BG (3.G.G.G (Bd).g.d | (BG)(AG) .F.G.A.c | (Bc).B.A (Bd).g.d |\
 .c.A(BG) (DG) G2 :|
|:v(dg) kg2 agbg | (ag).b.g .e.a ka2 | (dg) kg2 .a.g.b.g |\
 (ge).d.c (BG) G2 |
(dg) kg2 (ag).b.g | .a.g.b.g (ea) ka2 | .b.g.e.f (ge).d.c |\
 (Bc).A.c (BG) G2 "^Segno":|
